Numix/32/emotes/face-monkey.svg

<?xml version="1.0" encoding="UTF-8" standalone="no"?>
<svg
   xmlns:dc="http://purl.org/dc/elements/1.1/"
   xmlns:cc="http://creativecommons.org/ns#"
   xmlns:rdf="http://www.w3.org/1999/02/22-rdf-syntax-ns#"
   xmlns:svg="http://www.w3.org/2000/svg"
   xmlns="http://www.w3.org/2000/svg"
   xmlns:sodipodi="http://sodipodi.sourceforge.net/DTD/sodipodi-0.dtd"
   xmlns:inkscape="http://www.inkscape.org/namespaces/inkscape"
   width="32px"
   height="32px"
   viewBox="0 0 24 24"
   version="1.1"
   id="svg2"
   inkscape:version="0.91 r"
   sodipodi:docname="face-monkey.svg">
  <metadata
     id="metadata25">
    <rdf:RDF>
      <cc:Work
         rdf:about="">
        <dc:format>image/svg+xml</dc:format>
        <dc:type
           rdf:resource="http://purl.org/dc/dcmitype/StillImage" />
      </cc:Work>
    </rdf:RDF>
  </metadata>
  <defs
     id="defs23" />
  <sodipodi:namedview
     pagecolor="#ffffff"
     bordercolor="#666666"
     borderopacity="1"
     objecttolerance="10"
     gridtolerance="10"
     guidetolerance="10"
     inkscape:pageopacity="0"
     inkscape:pageshadow="2"
     inkscape:window-width="1920"
     inkscape:window-height="1056"
     id="namedview21"
     showgrid="true"
     inkscape:zoom="7.375"
     inkscape:cx="23.845217"
     inkscape:cy="0.39316613"
     inkscape:window-x="0"
     inkscape:window-y="24"
     inkscape:window-maximized="1"
     inkscape:current-layer="svg2">
    <inkscape:grid
       type="xygrid"
       id="grid4182" />
  </sodipodi:namedview>
  <path
     inkscape:connector-curvature="0"
     id="path5"
     d="m 22.499999,11.999999 c 0,4.971774 -4.703124,9 -10.499999,9 -5.796875,0 -10.4999999,-4.028226 -10.4999999,-9 0,-4.9717734 4.6985679,-8.9999991 10.4999999,-8.9999991 5.801432,0 10.499999,4.0282257 10.499999,8.9999991 z m 0,0"
     style="fill:#ffcc3d;fill-opacity:1;fill-rule:nonzero;stroke:none" />
  <path
     inkscape:connector-curvature="0"
     id="path7"
     d="m 11.566383,13.682795 c 0.150188,0.07295 0.338995,0.111569 0.55355,0.09011 0.35187,-0.03862 0.476311,-0.154481 0.600752,-0.291796 0.197391,-0.227427 0.270339,-0.536385 -0.02145,-0.708029 -0.23601,-0.137315 -0.74665,-0.145896 -1.081354,-0.07724 -0.802434,0.15877 -0.536387,0.759523 -0.05149,0.98695 z m 0,0"
     style="fill:#2e2e2e;fill-opacity:1;fill-rule:nonzero;stroke:none" />
  <path
     inkscape:connector-curvature="0"
     id="path9"
     d="M 15.529395,15.240012 C 14.329359,14.96473 11.765222,14.94716 10.08236,15.081873 c -4.0548072,0.31628 -2.7000801,1.516977 -0.2578212,1.979685 0.7359592,0.134706 1.6969252,0.222569 2.7797692,0.175712 1.771928,-0.07614 2.395384,-0.304568 3.018839,-0.585707 1.003156,-0.450993 1.359416,-1.07184 -0.09376,-1.411551 z m 0,0"
     style="fill:#de7035;fill-opacity:1;fill-rule:nonzero;stroke:none" />
  <path
     style="fill:#855c51;fill-opacity:1;fill-rule:nonzero;stroke:none"
     d="m 12.14244,3.000311 c -0.122022,-0.00136 -0.243563,0.00213 -0.364859,0.0044 -0.208722,0.00381 -0.415741,0.012288 -0.621285,0.026375 -0.131007,0.00917 -0.261369,0.018893 -0.391234,0.032236 C 10.574987,3.082476 10.387746,3.108859 10.200923,3.136587 10.068272,3.156608 9.933497,3.170871 9.802363,3.195199 9.719933,3.210262 9.640829,3.232706 9.559124,3.249415 9.111719,3.34221 8.673085,3.4554373 8.247685,3.59669 8.229685,3.60267 8.211425,3.608212 8.193465,3.614274 7.941899,3.699187 7.694406,3.7916123 7.452026,3.8926801 4.989911,4.9193349 3.028318,6.764094 2.105163,9.1018052 c -0.01384,6e-5 -0.02721,0.00267 -0.04103,0.00293 -0.359888,0.9089338 -0.564139,1.8790688 -0.564139,2.8924938 0,1.023799 0.208619,2.003449 0.575861,2.920333 0.01134,1.33e-4 0.02235,0.0015 0.0337,0.0015 1.151393,2.882082 3.886402,5.006555 7.19167,5.768868 0.127597,0.0291 0.254452,0.05995 0.383907,0.08499 0.143072,0.02803 0.287318,0.05183 0.432262,0.07473 0.19619,0.03054 0.393627,0.0566 0.593445,0.07766 0.108172,0.01161 0.216302,0.02351 0.325296,0.03224 0.313933,0.0246 0.631153,0.04211 0.952442,0.04249 0.0064,1e-5 0.01265,0 0.01905,0 0.330737,-1.17e-4 0.657342,-0.01673 0.980283,-0.04249 0.09093,-0.0073 0.180724,-0.01851 0.271079,-0.02784 0.227669,-0.02329 0.452536,-0.05234 0.675502,-0.08792 0.115739,-0.01862 0.231268,-0.03818 0.345809,-0.06008 0.185562,-0.03521 0.367752,-0.07812 0.549486,-0.121619 0.129974,-0.03131 0.261684,-0.05827 0.389768,-0.09378 0.249514,-0.06878 0.494587,-0.147507 0.735579,-0.231517 0.01248,-0.0044 0.02564,-0.0073 0.0381,-0.01172 0.17711,-0.06273 0.349223,-0.134328 0.521646,-0.205141 0.09019,-0.03689 0.180869,-0.07236 0.269614,-0.111363 0.17936,-0.07915 0.355464,-0.162784 0.528972,-0.250565 0.0755,-0.03806 0.149913,-0.07761 0.22419,-0.117224 0.181621,-0.09723 0.361997,-0.196761 0.536298,-0.303316 0.02451,-0.01492 0.04745,-0.03179 0.0718,-0.04689 1.708187,-1.063383 3.04502,-2.568953 3.764343,-4.369511 0.0069,-3e-5 0.01363,-0.0014 0.02052,-0.0015 0.367281,-0.916929 0.575861,-1.896476 0.575861,-2.920333 0,-1.013425 -0.204252,-1.98356 -0.564139,-2.8924938 -0.01382,-2.566e-4 -0.02718,-0.00287 -0.04103,-0.00293 C 20.848954,6.435158 18.436164,4.4026605 15.45694,3.5029136 c -0.0025,-7.524e-4 -0.0048,-0.00218 -0.0073,-0.00293 -0.001,-3.07e-4 -0.0019,-0.00116 -0.0029,-0.00147 C 15.230002,3.4332826 15.009771,3.3771825 14.787357,3.3241434 14.696577,3.3027864 14.60509,3.2833734 14.513346,3.2640664 14.335791,3.2261484 14.157655,3.1885474 13.977048,3.1585651 13.68989,3.1117531 13.400148,3.0706171 13.105198,3.044272 13.048978,3.039102 12.991665,3.039872 12.935224,3.035482 12.673526,3.01574 12.409368,3.003317 12.142499,3.000315 Z M 8.186142,7.3522383 c 1.313436,0.06363 2.49442,1.2129905 3.82149,1.1766321 1.413421,0.036361 2.662883,-1.272222 4.080848,-1.1722362 0.327223,0.022727 0.682811,0.012991 0.996401,0.1084319 0.895318,0.2772296 1.522403,0.972832 1.881439,1.7817988 0.327223,0.7589751 0.213033,1.5223411 -0.02784,2.2858611 -0.19088,0.595362 -0.199329,1.390982 -0.108433,2.004524 0.08635,0.581731 0.417884,1.126805 0.454242,1.708534 0.09544,1.595213 -1.291091,2.673561 -2.672699,3.27347 -1.367971,0.599908 -3.044956,0.825856 -4.608354,0.798586 C 10.439839,19.34511 8.762857,19.119162 7.394883,18.519254 6.013275,17.914801 4.626445,16.840997 4.730976,15.245784 4.762786,14.659511 5.10048,14.118981 5.182286,13.53725 5.273186,12.928253 5.263116,12.128088 5.076785,11.532726 4.831369,10.769206 4.718642,10.00584 5.050405,9.2468649 5.404895,8.4378981 6.032131,7.7422957 6.927448,7.4650661 7.245582,7.3696271 7.595161,7.3793521 7.922384,7.3566342 c 0.0909,-0.0091 0.177401,-0.009 0.263753,-0.0044 z"
     id="path5-9"
     inkscape:connector-curvature="0" />
  <circle
     style="opacity:1;fill:#656565;fill-opacity:1;fill-rule:nonzero;stroke:none;stroke-width:1.5;stroke-linecap:butt;stroke-linejoin:miter;stroke-miterlimit:4;stroke-dasharray:none;stroke-dashoffset:0;stroke-opacity:1"
     id="path4139"
     cx="8.25"
     cy="9.84375"
     r="1.59375" />
  <circle
     r="1.59375"
     cy="9.84375"
     cx="15.75"
     id="circle4141"
     style="opacity:1;fill:#656565;fill-opacity:1;fill-rule:nonzero;stroke:none;stroke-width:1.5;stroke-linecap:butt;stroke-linejoin:miter;stroke-miterlimit:4;stroke-dasharray:none;stroke-dashoffset:0;stroke-opacity:1" />
  <circle
     style="opacity:1;fill:#855c51;fill-opacity:1;fill-rule:nonzero;stroke:none;stroke-width:1.5;stroke-linecap:butt;stroke-linejoin:miter;stroke-miterlimit:4;stroke-dasharray:none;stroke-dashoffset:0;stroke-opacity:1"
     id="path4184"
     cx="2.25"
     cy="12"
     r="2.25" />
  <path
     inkscape:connector-curvature="0"
     id="path17"
     d="m 1.5,13.25 c -0.2668623,0 -0.51612889,-0.238257 -0.65102658,-0.624937 -0.13196459,-0.386681 -0.13196459,-0.863195 0,-1.249875 C 0.98387111,10.988507 1.2331377,10.75025 1.5,10.75025 Z m 0,0"
     style="fill:#ffcc3d;fill-opacity:1;fill-rule:nonzero;stroke:none" />
  <circle
     r="2.25"
     cy="12"
     cx="21.75"
     id="circle4186"
     style="opacity:1;fill:#855c51;fill-opacity:1;fill-rule:nonzero;stroke:none;stroke-width:1.5;stroke-linecap:butt;stroke-linejoin:miter;stroke-miterlimit:4;stroke-dasharray:none;stroke-dashoffset:0;stroke-opacity:1" />
  <path
     style="fill:#ffcc3d;fill-opacity:1;fill-rule:nonzero;stroke:none"
     d="m 22.499999,13.25 c 0.266862,0 0.516129,-0.238257 0.651027,-0.624937 0.131964,-0.386681 0.131964,-0.863195 0,-1.249875 -0.134898,-0.386681 -0.384165,-0.624938 -0.651027,-0.624938 z m 0,0"
     id="path4188"
     inkscape:connector-curvature="0" />
</svg>

<svg xmlns="http://www.w3.org/2000/svg" width="32" height="32" viewBox="0 0 24 24">
 <path d="m 22.5 12 c 0 4.972 -4.703 9 -10.5 9 -5.797 0 -10.5 -4.03 -10.5 -9 0 -4.972 4.699 -9 10.5 -9 5.801 0 10.5 4.03 10.5 9 z m 0 0" style="fill:#ffcc3d;fill-opacity:1;stroke:none;fill-rule:nonzero"/>
 <path d="m 11.566 13.683 c 0.15 0.073 0.339 0.112 0.554 0.09 0.352 -0.039 0.476 -0.154 0.601 -0.292 0.197 -0.227 0.27 -0.536 -0.021 -0.708 -0.236 -0.137 -0.747 -0.146 -1.081 -0.077 -0.802 0.159 -0.536 0.76 -0.051 0.987 z m 0 0" style="fill:#2e2e2e;fill-opacity:1;stroke:none;fill-rule:nonzero"/>
 <path d="m 15.529 15.24 c -1.2 -0.275 -3.764 -0.293 -5.447 -0.158 c -4.055 0.316 -2.7 1.517 -0.258 1.98 0.736 0.135 1.697 0.223 2.78 0.176 1.772 -0.076 2.395 -0.305 3.02 -0.586 1 -0.451 1.359 -1.072 -0.094 -1.412 z m 0 0" style="fill:#de7035;fill-opacity:1;stroke:none;fill-rule:nonzero"/>
 <path d="m 12.142 3 c -0.122 -0.001 -0.244 0.002 -0.365 0.004 -0.209 0.004 -0.416 0.012 -0.621 0.026 -0.131 0.009 -0.261 0.019 -0.391 0.032 c -0.19 0.019 -0.377 0.046 -0.564 0.073 -0.133 0.02 -0.267 0.034 -0.399 0.059 -0.082 0.015 -0.162 0.038 -0.243 0.054 -0.447 0.093 -0.886 0.206 -1.311 0.347 -0.018 0.006 -0.036 0.012 -0.054 0.018 -0.252 0.085 -0.499 0.177 -0.741 0.278 -2.462 1.027 -4.424 2.871 -5.347 5.209 c -0.014 0 -0.027 0.003 -0.041 0.003 -0.36 0.909 -0.564 1.879 -0.564 2.892 0 1.024 0.209 2 0.576 2.92 0.011 0 0.022 0.002 0.034 0.002 1.151 2.882 3.886 5.01 7.192 5.769 0.128 0.029 0.254 0.06 0.384 0.085 0.143 0.028 0.287 0.052 0.432 0.075 0.196 0.031 0.394 0.057 0.593 0.078 0.108 0.012 0.216 0.024 0.325 0.032 0.314 0.025 0.631 0.042 0.952 0.042 0.006 0 0.013 0 0.019 0 0.331 0 0.657 -0.017 0.98 -0.042 0.091 -0.007 0.181 -0.019 0.271 -0.028 0.228 -0.023 0.453 -0.052 0.676 -0.088 0.116 -0.019 0.231 -0.038 0.346 -0.06 0.186 -0.035 0.368 -0.078 0.549 -0.122 0.13 -0.031 0.262 -0.058 0.39 -0.094 0.25 -0.069 0.495 -0.148 0.736 -0.232 0.012 -0.004 0.026 -0.007 0.038 -0.012 0.177 -0.063 0.349 -0.134 0.522 -0.205 0.09 -0.037 0.181 -0.072 0.27 -0.111 0.179 -0.079 0.355 -0.163 0.529 -0.251 0.076 -0.038 0.15 -0.078 0.224 -0.117 0.182 -0.097 0.362 -0.197 0.536 -0.303 0.025 -0.015 0.047 -0.032 0.072 -0.047 1.708 -1.063 3.045 -2.569 3.764 -4.37 0.007 0 0.014 -0.001 0.021 -0.002 0.367 -0.917 0.576 -1.896 0.576 -2.92 0 -1.013 -0.204 -1.984 -0.564 -2.892 -0.014 0 -0.027 -0.003 -0.041 -0.003 c -1.052 -2.667 -3.465 -4.699 -6.444 -5.599 c -0.002 -0.001 -0.005 -0.002 -0.007 -0.003 -0.001 0 -0.002 -0.001 -0.003 -0.001 c -0.217 -0.065 -0.437 -0.121 -0.659 -0.174 -0.091 -0.021 -0.182 -0.041 -0.274 -0.06 -0.178 -0.038 -0.356 -0.076 -0.536 -0.106 -0.287 -0.047 -0.577 -0.088 -0.872 -0.114 -0.056 -0.005 -0.114 -0.004 -0.17 -0.009 -0.262 -0.02 -0.526 -0.032 -0.793 -0.035 m -3.956 4.352 c 1.313 0.064 2.494 1.213 3.821 1.177 1.413 0.036 2.663 -1.272 4.081 -1.172 0.327 0.023 0.683 0.013 0.996 0.108 0.895 0.277 1.522 0.973 1.881 1.782 0.327 0.759 0.213 1.522 -0.028 2.286 -0.191 0.595 -0.199 1.391 -0.108 2 0.086 0.582 0.418 1.127 0.454 1.709 0.095 1.595 -1.291 2.674 -2.673 3.273 -1.368 0.6 -3.045 0.826 -4.608 0.799 c -1.563 0.027 -3.24 -0.199 -4.608 -0.799 -1.382 -0.604 -2.768 -1.678 -2.664 -3.273 0.032 -0.586 0.37 -1.127 0.451 -1.709 0.091 -0.609 0.081 -1.409 -0.106 -2 -0.245 -0.764 -0.358 -1.527 -0.026 -2.286 0.354 -0.809 0.982 -1.505 1.877 -1.782 0.318 -0.095 0.668 -0.086 0.995 -0.108 c 0.091 -0.009 0.177 -0.009 0.264 -0.004 z" style="fill:#855c51;fill-opacity:1;stroke:none;fill-rule:nonzero"/>
 <circle cx="8.25" cy="9.844" r="1.594" style="fill:#656565;opacity:1;fill-opacity:1;stroke:none;fill-rule:nonzero"/>
 <circle r="1.594" cy="9.844" cx="15.75" style="fill:#656565;opacity:1;fill-opacity:1;stroke:none;fill-rule:nonzero"/>
 <circle cx="2.25" cy="12" r="2.25" style="fill:#855c51;opacity:1;fill-opacity:1;stroke:none;fill-rule:nonzero"/>
 <path d="m 1.5 13.25 c -0.267 0 -0.516 -0.238 -0.651 -0.625 -0.132 -0.387 -0.132 -0.863 0 -1.25 c 0.135 -0.387 0.384 -0.625 0.651 -0.625 m 0 2.5" style="fill:#ffcc3d;fill-opacity:1;stroke:none;fill-rule:nonzero"/>
 <circle r="2.25" cy="12" cx="21.75" style="fill:#855c51;opacity:1;fill-opacity:1;stroke:none;fill-rule:nonzero"/>
 <path d="m 22.5 13.25 c 0.267 0 0.516 -0.238 0.651 -0.625 0.132 -0.387 0.132 -0.863 0 -1.25 -0.135 -0.387 -0.384 -0.625 -0.651 -0.625 z m 0 0" style="fill:#ffcc3d;fill-opacity:1;stroke:none;fill-rule:nonzero"/>
</svg>
